X:1
T:Title
%%score { ( 1 3 4 ) | ( 2 5 ) }
L:1/8
Q:1/4=93
M:6/8
K:A
V:1 treble nm="Grand Piano"
V:3 treble 
V:4 treble 
V:2 bass 
V:5 bass 
V:1
 EFG AB=c | z2 f e2 A | z2 f e2 d | z3 e3 | EFG AB=c | z2 f e2 [Ec] | [EB][E^A][EB] [^Dc][DB][DF] | %7
w: J.~Lincoln~Hall * * * * *|||||||
 [DB]6 | [Ec]2 [Ac] [Gc][Fc][Ec] | [Fc]3 [Ec]3 | [Bd]3 [Gd]3 | [Fd]3 [Ec]3 | %12
w: |||||
 [Ec]2 [Ac] [Gc][Fc][Ec] | [Fc]3 [Ec]3 | [B^d]3 [Ad]3 |[M:15/16] [Ge]3 d3/2- d3 | %16
w: ||||
[M:3/4] [Ec]2 [Ac][Gc] [Fc][Ec] | [Fc]3 [Ec]3 | [Bd]3 [Gd]3 | [Fd]3 [Ec]3 | %20
w: ||||
 [ce]2 [ce][ce] [Be][Ae] | F2 z .A3 | [ce]3 [Bd]3 | [Ac]6 |] %24
w: ||||
V:2
 A,,2 [E,A,C] [E,A,C]2 [E,A,C] | A,,2 [E,A,C] [E,A,C]2 [E,A,C] | E,,2 [E,G,D] [E,G,D]2 [E,G,D] | %3
 A,,2 [E,A,C] [E,A,C]2 [E,A,] | A,,2 [E,A,C] [E,A,C]2 [E,A,C] | A,,2 [E,A,C] [E,A,C]2 [A,,A,] | %6
 [B,,G,][B,,G,][B,,G,] [B,,A,][B,,A,][B,,A,] | [E,G,]6 | A,,2 [E,A,C] [E,A,C]2 [E,A,C] | %9
 A,,2 E, [E,A,C]2 E, | E,,2 E, [E,G,D]2 E, | A,,2 E, [E,A,C]2 E, | A,,2 [E,A,C] [E,A,C]2 [E,A,C] | %13
 A,,2 E, [E,A,C]2 [E,A,] | [B,,B,]3 [B,,B,]3 |[M:15/16] z3 F3/2- F3 | %16
[M:3/4] A,,2 [E,A,C] [E,A,C]2 [E,A,C] | A,,2 E, [E,A,C]2 E, | E,,2 E, [E,G,D]2 E, | %19
 A,,2 E, [E,A,C]2 E, | A,,2 [E,A,C] [E,A,C]2 [E,A,C] | D,2 F, [F,A,D]2 [F,A,] | [E,E]3 [E,E]3 | %23
 [A,E]6 |] %24
V:3
 x6 | c6 | G6 | c6 | x6 | c6 | x6 | x6 | x6 | z2 [A,C] z2 [A,C] | z2 [G,D] z2 [G,D] | %11
 z2 [A,C] z2 [A,C] | x6 | z2 [A,C] z2 C | x6 |[M:15/16] x15/2 |[M:3/4] x6 | z2 .[A,C]2 z [A,C] | %18
 z2 .[G,D]2 z [G,D] | z2 .[A,C]2 z [A,C] | x6 | d2- [A,DGd] d2- [DBd] | x6 | x6 |] %24
V:4
 x6 | x6 | x6 | z2 f z2 C | x6 | x6 | x6 | x6 | x6 | x6 | x6 | x6 | x6 | x6 | x6 |[M:15/16] x15/2 | %16
[M:3/4] x6 | x6 | x6 | x6 | x6 | x6 | x6 | x6 |] %24
V:5
 x6 | x6 | x6 | x6 | x6 | x6 | x6 | x6 | x6 | x6 | x6 | x6 | x6 | x6 | x6 | %15
[M:15/16] [E,B,]3/2-[E,B,]3/2-[E,B,]3/2- [E,B,]3 |[M:3/4] x6 | x6 | x6 | x6 | x6 | x6 | x6 | x6 |] %24

